logos/workplace.svg

<?xml version="1.0" encoding="UTF-8"?>
<svg width="512px" height="101px" viewBox="0 0 512 101" version="1.1" xmlns="http://www.w3.org/2000/svg" preserveAspectRatio="xMidYMid">
    <title>Workplace</title>
    <g>
        <path d="M368.577108,15.224986 L358.658212,15.224986 L358.658212,70.0528858 L368.577108,70.0528858 L368.577108,56.7721355 L368.577108,15.224986 Z M456.760905,55.6504793 C455.804878,59.6437078 452.164804,62.2460259 447.478102,62.2460259 C440.5613,62.2460259 436.785325,56.9964668 436.785325,49.9971805 C436.785325,42.9978942 440.470699,37.7484295 447.341257,37.7484295 C452.027959,37.7484295 455.941723,40.6199074 456.66936,44.5682131 L466.088064,42.1903206 C464.131654,34.3385378 456.396614,29.3133099 447.068511,29.3133099 C434.419323,29.3133099 426.455894,38.5111747 426.455894,49.952352 C426.455894,61.3935294 434.419323,70.5912997 447.068511,70.5912997 C456.57876,70.5912997 463.949509,65.4315864 466.179609,57.9836376 L456.760905,55.6504793 Z M502.489751,56.6824785 C501.443124,60.4962043 498.12204,62.5601085 493.071047,62.5601085 C486.792226,62.5601085 482.605716,58.4323001 481.877135,52.0162562 L511.817855,52.0162562 C511.908455,51.2085882 512,50.0421034 512,48.6960215 C512,39.1841685 505.85708,29.4030613 492.251865,29.4030613 C478.965641,29.4030613 472.36783,39.3187483 472.36783,49.9074291 C472.36783,60.4064529 479.784823,70.7258796 493.071047,70.7258796 C502.126405,70.7258796 509.179108,66.2391601 511.590409,59.060371 L502.489751,56.6824785 Z M492.251865,36.6716017 C498.12204,36.6716017 501.670569,40.4853275 502.08016,45.5553838 L482.105524,45.5553838 C483.151208,39.5430796 486.700681,36.6716017 492.251865,36.6716017 Z M310.062229,84.8142979 L319.890524,84.8142979 L319.890524,65.6559177 C322.165924,68.7517268 326.488336,70.6810511 331.402483,70.6810511 C343.324033,70.6810511 350.968473,62.2460259 350.968473,50.0421034 C350.968473,37.793258 343.778925,29.4030613 332.130121,29.4030613 C326.715781,29.4030613 322.301826,31.6464683 319.890524,35.05636 L318.024715,30.0312266 L310.062229,30.0312266 L310.062229,84.8142979 Z M330.265255,62.2460259 C323.575899,62.2460259 319.208187,57.4003008 319.208187,49.9971805 C319.208187,42.5940602 323.575899,37.7484295 330.265255,37.7484295 C336.771522,37.7484295 341.140178,42.5940602 341.140178,49.9971805 C341.140178,57.4003008 336.771522,62.2460259 330.265255,62.2460259 Z M396.697319,70.6810511 C401.793612,70.6810511 406.435013,68.5273955 408.391424,65.341835 L410.257233,70.0080573 L418.265963,70.0080573 L418.265963,29.9863981 L410.257233,29.9863981 L408.391424,34.5179461 C406.070723,31.422137 401.61241,29.3582328 396.561418,29.3582328 C384.457723,29.3582328 377.40502,37.793258 377.40502,49.9971805 C377.40502,62.2460259 384.457723,70.6810511 396.697319,70.6810511 Z M398.108237,62.2460259 C391.60197,62.2460259 387.233315,57.4003008 387.233315,49.9971805 C387.233315,42.5940602 391.60197,37.7484295 398.108237,37.7484295 C404.797593,37.7484295 409.165305,42.5940602 409.165305,49.9971805 C409.165305,57.4003008 404.751349,62.2460259 398.108237,62.2460259 Z M138.701271,66.8673253 L147.210193,43.0876456 L155.582269,66.777574 C157.402778,71.9822102 164.865072,72.0270387 166.776182,66.8673253 L180.381396,29.9863981 L170.553101,29.9863981 L161.088153,57.8938862 L152.851977,33.4411184 C151.032412,28.0122453 143.251128,28.0122453 141.431563,33.4411184 L133.195387,57.8938862 L123.821984,29.9863981 L113.948388,29.9863981 L127.735748,66.9570767 C129.600613,71.9822102 136.880762,71.9373817 138.701271,66.8673253 Z M203.63276,70.6362226 C215.963901,70.6362226 224.83617,61.8870204 224.83617,49.9971805 C224.83617,38.0625122 215.963901,29.3582328 203.63276,29.3582328 C191.211018,29.3582328 182.383107,38.1073407 182.383107,49.9971805 C182.383107,61.8870204 191.211018,70.6362226 203.63276,70.6362226 Z M203.63276,62.201103 C196.852803,62.201103 192.348247,57.1759696 192.348247,49.952352 C192.348247,42.7286401 196.852803,37.703601 203.63276,37.703601 C210.321173,37.703601 214.825729,42.7286401 214.825729,49.952352 C214.825729,57.2207981 210.321173,62.201103 203.63276,62.201103 Z M257.461881,38.8700858 L257.461881,29.5825641 C256.505854,29.4479842 255.504527,29.4030613 254.504144,29.4030613 C249.088861,29.4030613 244.675849,31.6464683 242.263603,35.05636 L240.398738,30.0312266 L232.435308,30.0312266 L232.435308,70.0528858 L242.263603,70.0528858 L242.263603,50.0421034 C242.263603,45.7347922 243.447076,42.1453977 246.404813,40.036665 C248.907659,38.197092 252.547734,37.5689268 257.461881,38.8700858 Z M274.660925,15.224986 L264.74203,15.224986 L264.74203,70.0528858 L274.660925,70.0528858 L274.660925,56.7721355 L274.660925,15.224986 Z M302.326245,29.9863981 L290.859587,29.9863981 L280.121509,44.2093019 C277.482762,47.6641166 277.573362,52.4649187 280.258354,55.8748105 L291.542867,70.0528858 L303.691863,70.0528858 L286.71932,49.7280208 L302.326245,29.9863981 Z" fill="#4326C4"></path>
        <path d="M93.9397764,43.9390096 C93.9397764,19.6549857 74.2480786,0 50.0007668,0 C43.2776241,0 36.7015189,1.32257292 30.566243,3.9677282 C24.5779102,6.50267142 19.2508686,10.103023 14.6585425,14.695349 C10.0663108,19.2508686 6.46597812,24.6146223 3.93103489,30.566243 C1.32261067,36.738231 0,43.2777185 0,50.0375734 C0,56.7973339 1.32261067,63.3368213 3.93103489,69.5088094 C6.46597812,75.46043 10.0663108,80.7874716 14.6585425,85.3797977 C19.2508686,89.9720294 24.6146223,93.5723715 30.566243,96.1075884 C36.7015189,98.7161353 43.2777185,100.03834 50.0375734,100.03834 C56.5402542,100.03834 62.7490489,98.7888047 68.4434954,96.5483234 L64.6594037,86.9962663 C60.1405963,88.7963901 55.2176719,89.7883741 50.0375734,89.7883741 C39.4202023,89.7883741 29.4274103,85.6368773 21.9328398,78.1423069 C14.438175,70.6477365 10.2866783,60.65485 10.2866783,50.0375734 C10.2866783,39.4202023 14.438175,29.4273159 21.9328398,21.9327455 C29.4641225,14.438175 39.4202023,10.2866783 50.0375734,10.2866783 C68.6271507,10.2866783 83.6898104,25.3494323 83.6898104,43.9390096 C83.6898104,50.7722889 81.6325125,57.1647388 78.1055947,62.4917805 L69.3618663,40.9631522 C68.0759961,37.8037337 66.5330463,33.0644646 60.7283688,33.0644646 C54.9237856,33.0644646 53.3807414,37.8404459 52.1316778,40.9631522 L44.0859528,60.8385997 L33.2849264,33.5788126 L21.9328398,33.5788126 L35.3789365,66.7167016 C36.7383254,70.0598696 38.2445631,74.6154835 44.0859528,74.6154835 C49.9273424,74.6154835 51.3968679,70.0598696 52.7561624,66.7167016 L60.7283688,47.0250037 L68.7373817,66.7167016 C70.3538502,70.7946796 72.0805497,74.6154835 77.4075914,74.6154835 C81.1915888,74.6154835 83.5795794,72.1906863 84.9021618,70.6109299 C90.5598962,63.2265904 93.9397764,53.9685139 93.9397764,43.9390096 Z" fill="#4326C4"></path>
    </g>
</svg>

<svg preserveAspectRatio="xMidYMid" viewBox="0 0 512 101" xmlns="http://www.w3.org/2000/svg">
  <g fill="#4326C4">
    <path d="M368.577 15.225h-9.919v54.828h9.92V15.225Zm88.184 40.425c-.956 3.994-4.596 6.596-9.283 6.596-6.917 0-10.693-5.25-10.693-12.249 0-7 3.686-12.249 10.556-12.249 4.687 0 8.6 2.872 9.328 6.82l9.42-2.378c-1.957-7.851-9.692-12.877-19.02-12.877-12.65 0-20.613 9.198-20.613 20.64 0 11.44 7.963 20.638 20.613 20.638 9.51 0 16.88-5.16 19.11-12.607l-9.418-2.334Zm45.729 1.032c-1.047 3.814-4.368 5.878-9.419 5.878-6.279 0-10.465-4.128-11.194-10.544h29.94c.091-.807.183-1.974.183-3.32 0-9.512-6.143-19.293-19.748-19.293-13.286 0-19.884 9.916-19.884 20.504 0 10.5 7.417 20.819 20.703 20.819 9.055 0 16.108-4.487 18.52-11.666l-9.101-2.378Zm-10.238-20.01c5.87 0 9.419 3.813 9.828 8.883h-19.974c1.045-6.012 4.595-8.883 10.146-8.883Zm-182.19 48.142h9.829V65.656c2.275 3.096 6.597 5.025 11.511 5.025 11.922 0 19.566-8.435 19.566-20.639 0-12.249-7.19-20.639-18.838-20.639-5.414 0-9.828 2.243-12.24 5.653l-1.865-5.025h-7.963v54.783Zm20.203-22.568c-6.69 0-11.057-4.846-11.057-12.249 0-7.403 4.368-12.249 11.057-12.249 6.507 0 10.875 4.846 10.875 12.25 0 7.402-4.368 12.248-10.875 12.248Zm66.432 8.435c5.097 0 9.738-2.154 11.694-5.34l1.866 4.667h8.009V29.986h-8.009l-1.866 4.532c-2.32-3.096-6.779-5.16-11.83-5.16-12.103 0-19.156 8.435-19.156 20.64 0 12.248 7.053 20.683 19.292 20.683Zm1.411-8.435c-6.506 0-10.875-4.846-10.875-12.249 0-7.403 4.369-12.249 10.875-12.249 6.69 0 11.057 4.846 11.057 12.25 0 7.402-4.414 12.248-11.057 12.248Zm-259.407 4.621 8.51-23.78 8.371 23.69c1.82 5.205 9.283 5.25 11.194.09l13.605-36.88h-9.828l-9.465 27.907-8.236-24.453c-1.82-5.429-9.6-5.429-11.42 0l-8.237 24.453-9.373-27.908h-9.874l13.788 36.971c1.865 5.025 9.145 4.98 10.965-.09Zm64.932 3.77c12.33 0 21.203-8.75 21.203-20.64 0-11.934-8.872-20.639-21.203-20.639-12.422 0-21.25 8.75-21.25 20.64 0 11.889 8.828 20.638 21.25 20.638Zm0-8.436c-6.78 0-11.285-5.025-11.285-12.249 0-7.223 4.505-12.248 11.285-12.248 6.688 0 11.193 5.025 11.193 12.248 0 7.269-4.505 12.25-11.193 12.25Zm53.829-23.33v-9.288c-.956-.135-1.957-.18-2.958-.18-5.415 0-9.828 2.243-12.24 5.653l-1.865-5.025h-7.964v40.022h9.829v-20.01c0-4.308 1.183-7.898 4.14-10.006 2.504-1.84 6.144-2.468 11.058-1.167Zm17.199-23.646h-9.919v54.828h9.919V15.225Zm27.665 14.761H290.86L280.122 44.21c-2.64 3.455-2.549 8.256.136 11.666l11.285 14.178h12.149l-16.973-20.325 15.607-19.742Z"/>
    <path d="M93.94 43.939C93.94 19.655 74.248 0 50 0c-6.722 0-13.298 1.323-19.434 3.968A49.822 49.822 0 0 0 14.66 14.695c-4.593 4.556-8.193 9.92-10.728 15.871C1.323 36.738 0 43.278 0 50.038c0 6.76 1.323 13.299 3.931 19.47A50.073 50.073 0 0 0 14.659 85.38a50.235 50.235 0 0 0 15.907 10.728c6.136 2.608 12.712 3.93 19.472 3.93 6.502 0 12.711-1.25 18.405-3.49l-3.784-9.552a39.381 39.381 0 0 1-14.621 2.792c-10.618 0-20.61-4.151-28.105-11.646-7.495-7.494-11.646-17.487-11.646-28.104 0-10.618 4.151-20.61 11.646-28.105 7.531-7.495 17.487-11.646 28.105-11.646 18.59 0 33.652 15.062 33.652 33.652a33.537 33.537 0 0 1-5.584 18.553l-8.744-21.529c-1.286-3.16-2.829-7.899-8.634-7.899-5.804 0-7.347 4.776-8.596 7.9l-8.046 19.875-10.801-27.26H21.933l13.446 33.138c1.36 3.343 2.866 7.898 8.707 7.898 5.841 0 7.31-4.555 8.67-7.898l7.972-19.692 8.01 19.692c1.616 4.078 3.343 7.898 8.67 7.898 3.784 0 6.172-2.424 7.494-4.004a43.738 43.738 0 0 0 9.038-26.672Z"/>
  </g>
</svg>
